X:944
T:Reel 944
M:4/4
K:Gmaj
L:1/8
A|d2BG AGFD|DGBG cAFA|G2BG AGFD|defd cAFA|G2BG AGFD|GABd cAFA|GABd cABc|dgfd cAF|c|dg (3gfg dggf|dggf  (3def ce|dg (3gfg aggf|dcde fdcA|dg (3gfg aggf|dggf  (3def cB|AGAB cdef|fdcA AGG2|
